; AI-Accelerated MOF Sensor Chip — Direct-Ink-Write G-Code
; Generated by stage5_chip_fabrication.py
; Electrodes: 16, Pitch: 200.0 µm
G21          ; Units: mm
G90          ; Absolute positioning
G28          ; Home all axes
G1 F200.0   ; Set feed rate

; === Layer 1 (Z=0.020 mm) ===
G1 Z0.020
G1 X0.0 Y0 Z0.120  ; travel
G1 Z0.020                    ; lower
G1 X0.0 Y8.0  ; electrode 1
G1 Z0.120               ; lift
G1 X0.2 Y0 Z0.120  ; travel
G1 Z0.020                    ; lower
G1 X0.2 Y8.0  ; electrode 2
G1 Z0.120               ; lift
G1 X0.4 Y0 Z0.120  ; travel
G1 Z0.020                    ; lower
G1 X0.4 Y8.0  ; electrode 3
G1 Z0.120               ; lift
G1 X0.6 Y0 Z0.120  ; travel
G1 Z0.020                    ; lower
G1 X0.6 Y8.0  ; electrode 4
G1 Z0.120               ; lift
G1 X0.8 Y0 Z0.120  ; travel
G1 Z0.020                    ; lower
G1 X0.8 Y8.0  ; electrode 5
G1 Z0.120               ; lift
G1 X1.0 Y0 Z0.120  ; travel
G1 Z0.020                    ; lower
G1 X1.0 Y8.0  ; electrode 6
G1 Z0.120               ; lift
G1 X1.2 Y0 Z0.120  ; travel
G1 Z0.020                    ; lower
G1 X1.2 Y8.0  ; electrode 7
G1 Z0.120               ; lift
G1 X1.4 Y0 Z0.120  ; travel
G1 Z0.020                    ; lower
G1 X1.4 Y8.0  ; electrode 8
G1 Z0.120               ; lift
G1 X1.6 Y0 Z0.120  ; travel
G1 Z0.020                    ; lower
G1 X1.6 Y8.0  ; electrode 9
G1 Z0.120               ; lift
G1 X1.8 Y0 Z0.120  ; travel
G1 Z0.020                    ; lower
G1 X1.8 Y8.0  ; electrode 10
G1 Z0.120               ; lift
G1 X2.0 Y0 Z0.120  ; travel
G1 Z0.020                    ; lower
G1 X2.0 Y8.0  ; electrode 11
G1 Z0.120               ; lift
G1 X2.2 Y0 Z0.120  ; travel
G1 Z0.020                    ; lower
G1 X2.2 Y8.0  ; electrode 12
G1 Z0.120               ; lift
G1 X2.4 Y0 Z0.120  ; travel
G1 Z0.020                    ; lower
G1 X2.4 Y8.0  ; electrode 13
G1 Z0.120               ; lift
G1 X2.6 Y0 Z0.120  ; travel
G1 Z0.020                    ; lower
G1 X2.6 Y8.0  ; electrode 14
G1 Z0.120               ; lift
G1 X2.8 Y0 Z0.120  ; travel
G1 Z0.020                    ; lower
G1 X2.8 Y8.0  ; electrode 15
G1 Z0.120               ; lift
G1 X3.0 Y0 Z0.120  ; travel
G1 Z0.020                    ; lower
G1 X3.0 Y8.0  ; electrode 16
G1 Z0.120               ; lift
; === Layer 2 (Z=0.040 mm) ===
G1 Z0.040
G1 X0.0 Y0 Z0.140  ; travel
G1 Z0.040                    ; lower
G1 X0.0 Y8.0  ; electrode 1
G1 Z0.140               ; lift
G1 X0.2 Y0 Z0.140  ; travel
G1 Z0.040                    ; lower
G1 X0.2 Y8.0  ; electrode 2
G1 Z0.140               ; lift
G1 X0.4 Y0 Z0.140  ; travel
G1 Z0.040                    ; lower
G1 X0.4 Y8.0  ; electrode 3
G1 Z0.140               ; lift
G1 X0.6 Y0 Z0.140  ; travel
G1 Z0.040                    ; lower
G1 X0.6 Y8.0  ; electrode 4
G1 Z0.140               ; lift
G1 X0.8 Y0 Z0.140  ; travel
G1 Z0.040                    ; lower
G1 X0.8 Y8.0  ; electrode 5
G1 Z0.140               ; lift
G1 X1.0 Y0 Z0.140  ; travel
G1 Z0.040                    ; lower
G1 X1.0 Y8.0  ; electrode 6
G1 Z0.140               ; lift
G1 X1.2 Y0 Z0.140  ; travel
G1 Z0.040                    ; lower
G1 X1.2 Y8.0  ; electrode 7
G1 Z0.140               ; lift
G1 X1.4 Y0 Z0.140  ; travel
G1 Z0.040                    ; lower
G1 X1.4 Y8.0  ; electrode 8
G1 Z0.140               ; lift
G1 X1.6 Y0 Z0.140  ; travel
G1 Z0.040                    ; lower
G1 X1.6 Y8.0  ; electrode 9
G1 Z0.140               ; lift
G1 X1.8 Y0 Z0.140  ; travel
G1 Z0.040                    ; lower
G1 X1.8 Y8.0  ; electrode 10
G1 Z0.140               ; lift
G1 X2.0 Y0 Z0.140  ; travel
G1 Z0.040                    ; lower
G1 X2.0 Y8.0  ; electrode 11
G1 Z0.140               ; lift
G1 X2.2 Y0 Z0.140  ; travel
G1 Z0.040                    ; lower
G1 X2.2 Y8.0  ; electrode 12
G1 Z0.140               ; lift
G1 X2.4 Y0 Z0.140  ; travel
G1 Z0.040                    ; lower
G1 X2.4 Y8.0  ; electrode 13
G1 Z0.140               ; lift
G1 X2.6 Y0 Z0.140  ; travel
G1 Z0.040                    ; lower
G1 X2.6 Y8.0  ; electrode 14
G1 Z0.140               ; lift
G1 X2.8 Y0 Z0.140  ; travel
G1 Z0.040                    ; lower
G1 X2.8 Y8.0  ; electrode 15
G1 Z0.140               ; lift
G1 X3.0 Y0 Z0.140  ; travel
G1 Z0.040                    ; lower
G1 X3.0 Y8.0  ; electrode 16
G1 Z0.140               ; lift
; === Layer 3 (Z=0.060 mm) ===
G1 Z0.060
G1 X0.0 Y0 Z0.160  ; travel
G1 Z0.060                    ; lower
G1 X0.0 Y8.0  ; electrode 1
G1 Z0.160               ; lift
G1 X0.2 Y0 Z0.160  ; travel
G1 Z0.060                    ; lower
G1 X0.2 Y8.0  ; electrode 2
G1 Z0.160               ; lift
G1 X0.4 Y0 Z0.160  ; travel
G1 Z0.060                    ; lower
G1 X0.4 Y8.0  ; electrode 3
G1 Z0.160               ; lift
G1 X0.6 Y0 Z0.160  ; travel
G1 Z0.060                    ; lower
G1 X0.6 Y8.0  ; electrode 4
G1 Z0.160               ; lift
G1 X0.8 Y0 Z0.160  ; travel
G1 Z0.060                    ; lower
G1 X0.8 Y8.0  ; electrode 5
G1 Z0.160               ; lift
G1 X1.0 Y0 Z0.160  ; travel
G1 Z0.060                    ; lower
G1 X1.0 Y8.0  ; electrode 6
G1 Z0.160               ; lift
G1 X1.2 Y0 Z0.160  ; travel
G1 Z0.060                    ; lower
G1 X1.2 Y8.0  ; electrode 7
G1 Z0.160               ; lift
G1 X1.4 Y0 Z0.160  ; travel
G1 Z0.060                    ; lower
G1 X1.4 Y8.0  ; electrode 8
G1 Z0.160               ; lift
G1 X1.6 Y0 Z0.160  ; travel
G1 Z0.060                    ; lower
G1 X1.6 Y8.0  ; electrode 9
G1 Z0.160               ; lift
G1 X1.8 Y0 Z0.160  ; travel
G1 Z0.060                    ; lower
G1 X1.8 Y8.0  ; electrode 10
G1 Z0.160               ; lift
G1 X2.0 Y0 Z0.160  ; travel
G1 Z0.060                    ; lower
G1 X2.0 Y8.0  ; electrode 11
G1 Z0.160               ; lift
G1 X2.2 Y0 Z0.160  ; travel
G1 Z0.060                    ; lower
G1 X2.2 Y8.0  ; electrode 12
G1 Z0.160               ; lift
G1 X2.4 Y0 Z0.160  ; travel
G1 Z0.060                    ; lower
G1 X2.4 Y8.0  ; electrode 13
G1 Z0.160               ; lift
G1 X2.6 Y0 Z0.160  ; travel
G1 Z0.060                    ; lower
G1 X2.6 Y8.0  ; electrode 14
G1 Z0.160               ; lift
G1 X2.8 Y0 Z0.160  ; travel
G1 Z0.060                    ; lower
G1 X2.8 Y8.0  ; electrode 15
G1 Z0.160               ; lift
G1 X3.0 Y0 Z0.160  ; travel
G1 Z0.060                    ; lower
G1 X3.0 Y8.0  ; electrode 16
G1 Z0.160               ; lift

G28 Z   ; raise Z
M84     ; motors off
; END